lib/brands/icons/discord-alt.svg

<svg xmlns="http://www.w3.org/2000/svg" fill="none" aria-hidden="true" viewBox="0 0 48 48"><g id="discord-alt-Icon"><path id="Vector" fill="#5865F2" d="M22.4924 23.139C22.4924 24.249 21.6374 25.164 20.5874 25.164C19.5374 25.164 18.6824 24.264 18.6824 23.154C18.6824 22.044 19.5374 21.144 20.5874 21.144C21.6374 21.144 22.4924 22.044 22.4924 23.139ZM29.3129 23.139C29.3129 24.249 28.4579 25.164 27.4079 25.164C26.3579 25.164 25.5029 24.264 25.5029 23.154C25.5029 22.044 26.3579 21.144 27.4079 21.144C28.4579 21.144 29.3129 22.044 29.3129 23.139ZM36.2249 38.595L34.0199 36.585L31.6199 34.485L32.6249 37.8H11.5649C9.46488 37.8 7.75488 36.195 7.75488 34.08V9.72C7.75488 7.71 9.46488 6 11.5649 6H36.3299C38.4449 6 40.1399 7.71 40.2449 9.72V42L36.2249 38.595ZM27.1004 14.535L27.0704 14.55H27.0854L27.1004 14.535ZM27.1154 14.52L27.1004 14.535L27.1454 14.52H27.1154ZM26.8154 14.82C29.9204 15.72 31.4204 17.13 31.4204 17.13C29.4254 16.125 27.6104 15.63 25.8104 15.42C24.5054 15.225 23.2004 15.33 22.0904 15.42H21.7904C21.0854 15.42 19.5854 15.72 17.5754 16.53C16.8854 16.83 16.4804 17.025 16.4804 17.025C16.4804 17.025 17.9804 15.525 21.2954 14.73L21.0854 14.52C21.0854 14.52 18.5804 14.43 15.8804 16.425C15.8804 16.425 13.1654 21.15 13.1654 26.955C13.1654 26.955 14.6654 29.565 18.7754 29.67C18.7754 29.67 19.3754 28.875 19.9904 28.17C17.6804 27.465 16.7804 26.055 16.7804 26.055C16.7804 26.055 16.9754 26.16 17.2754 26.355H17.3654C17.4104 26.355 17.4404 26.385 17.4554 26.4V26.415C17.4854 26.43 17.5004 26.46 17.5454 26.46C18.0404 26.655 18.5354 26.865 18.9404 27.06C19.6454 27.36 20.5454 27.66 21.6404 27.855C23.0354 28.065 24.6404 28.155 26.4554 27.855C27.3554 27.66 28.2554 27.465 29.1554 27.06C29.7404 26.76 30.4604 26.46 31.2554 25.95C31.2554 25.95 30.3554 27.36 27.9554 28.065C28.4504 28.755 29.1404 29.565 29.1404 29.565C33.2504 29.475 34.8554 26.865 34.9454 26.97C34.9454 21.165 32.2304 16.44 32.2304 16.44C29.8004 14.64 27.5354 14.55 27.0854 14.55L26.8154 14.82Z"/></g></svg>

<svg xmlns="http://www.w3.org/2000/svg" fill="none" aria-hidden="true" viewBox="0 0 48 48"><path fill="#5865F2" d="M22.492 23.139c0 1.11-.855 2.025-1.905 2.025s-1.905-.9-1.905-2.01c0-1.11.855-2.01 1.905-2.01s1.905.9 1.905 1.995Zm6.82 0c0 1.11-.854 2.025-1.904 2.025-1.05 0-1.905-.9-1.905-2.01 0-1.11.855-2.01 1.905-2.01s1.905.9 1.905 1.995Zm6.913 15.456-2.205-2.01-2.4-2.1 1.005 3.315h-21.06c-2.1 0-3.81-1.605-3.81-3.72V9.72c0-2.01 1.71-3.72 3.81-3.72H36.33c2.115 0 3.81 1.71 3.915 3.72V42l-4.02-3.405ZM27.1 14.535l-.03.015h.015l.015-.015Zm.015-.015-.015.015.045-.015h-.03Zm-.3.3c3.105.9 4.605 2.31 4.605 2.31-1.995-1.005-3.81-1.5-5.61-1.71-1.305-.195-2.61-.09-3.72 0h-.3c-.705 0-2.205.3-4.215 1.11-.69.3-1.095.495-1.095.495s1.5-1.5 4.815-2.295l-.21-.21s-2.505-.09-5.205 1.905c0 0-2.715 4.725-2.715 10.53 0 0 1.5 2.61 5.61 2.715 0 0 .6-.795 1.215-1.5-2.31-.705-3.21-2.115-3.21-2.115s.195.105.495.3h.09c.045 0 .075.03.09.045v.015c.03.015.045.045.09.045.495.195.99.405 1.395.6.705.3 1.605.6 2.7.795 1.395.21 3 .3 4.815 0 .9-.195 1.8-.39 2.7-.795.585-.3 1.305-.6 2.1-1.11 0 0-.9 1.41-3.3 2.115.495.69 1.185 1.5 1.185 1.5 4.11-.09 5.715-2.7 5.805-2.595 0-5.805-2.715-10.53-2.715-10.53-2.43-1.8-4.695-1.89-5.145-1.89l-.27.27Z"/></svg>
